svgs/drnyheder.svg

<svg xmlns="http://www.w3.org/2000/svg" viewBox="0 0 192 192"><path d="M35.649 161.901v-14.039l23.776.02c21.397.018 24.156.192 27.566 1.74 4.751 2.157 6.626 5.633 6.626 12.279s-1.875 10.122-6.626 12.279c-3.41 1.548-6.169 1.722-27.566 1.74l-23.776.02Zm38.424 6.862c1.923-1.809 2.335-3.019 2.335-6.862s-.412-5.053-2.335-6.862c-2.17-2.041-3.016-2.195-12.001-2.195h-9.666l-.264 8.08c-.145 4.444-.042 8.659.229 9.366.394 1.026 2.406 1.224 9.931.977 8.514-.278 9.664-.523 11.771-2.504Zm26.791-6.902v-14.079l25.893.267 25.894.266 2.184 2.541c2.563 2.981 2.928 8.223.786 11.281-.769 1.098-3.238 2.533-5.485 3.189l-4.086 1.191 6.509 4.485 6.51 4.485-10.601.256-10.6.256-4.362-3.652c-4.051-3.392-4.758-3.653-9.898-3.653h-5.535v7.246h-17.209Zm36.23 1.138c1.683-.847 2.335-1.984 2.54-4.429.425-5.066-1.865-6.179-12.705-6.179h-8.856v5.283c0 2.906.272 5.555.604 5.888 1.079 1.079 16.065.621 18.417-.563Zm-51.43-71.353c-7.611-.927-21.442-5.33-27.371-8.713-11.162-6.369-23.163-17.696-27.726-26.169-1.579-2.931-1.57-2.993.99-6.878 4.719-7.165 9.906-12.675 16.789-17.836 7.272-5.453 13.209-8.939 13.956-8.193.251.252-.563 2.982-1.81 6.068-5.999 14.854-2.484 30.796 9.234 41.878 18.978 17.95 48.91 11.769 60.392-12.471 2.64-5.574 2.897-6.891 2.87-14.726-.025-7.235-.417-9.535-2.459-14.448-1.337-3.214-2.224-6.049-1.972-6.301.707-.707 7.972 3.508 14.607 8.473 5.559 4.16 13.622 13.005 17.64 19.352l1.709 2.699-5.578 7.402c-16.428 21.802-43.687 33.223-71.271 29.863Zm.438-20.268c-8.387-2.992-15.68-10.537-17.998-18.62-4.768-16.629 5.09-32.769 22.117-36.211 19.863-4.016 37.902 14.893 32.886 34.471-3.392 13.243-14.338 21.722-27.914 21.627-3.108-.022-7.199-.592-9.091-1.267Z"/></svg>

<svg
    xmlns="http://www.w3.org/2000/svg"
    viewBox="0 0 192 192"
    id="vector">
    <g id="group">
        <path
            id="path_6"
            d="M 35.649 161.901 L 35.649 147.862 L 59.425 147.882 C 80.822 147.9 83.581 148.074 86.991 149.622 C 91.742 151.779 93.617 155.255 93.617 161.901 C 93.617 168.547 91.742 172.023 86.991 174.18 C 83.581 175.728 80.822 175.902 59.425 175.92 L 35.649 175.94 Z M 74.073 168.763 C 75.996 166.954 76.408 165.744 76.408 161.901 C 76.408 158.058 75.996 156.848 74.073 155.039 C 71.903 152.998 71.057 152.844 62.072 152.844 L 52.406 152.844 L 52.142 160.924 C 51.997 165.368 52.1 169.583 52.371 170.29 C 52.765 171.316 54.777 171.514 62.302 171.267 C 70.816 170.989 71.966 170.744 74.073 168.763 Z M 100.864 161.861 L 100.864 147.782 L 126.757 148.049 L 152.651 148.315 L 154.835 150.856 C 157.398 153.837 157.763 159.079 155.621 162.137 C 154.852 163.235 152.383 164.67 150.136 165.326 L 146.05 166.517 L 152.559 171.002 L 159.069 175.487 L 148.468 175.743 L 137.868 175.999 L 133.506 172.347 C 129.455 168.955 128.748 168.694 123.608 168.694 L 118.073 168.694 L 118.073 175.94 L 100.864 175.94 Z M 137.094 162.999 C 138.777 162.152 139.429 161.015 139.634 158.57 C 140.059 153.504 137.769 152.391 126.929 152.391 L 118.073 152.391 L 118.073 157.674 C 118.073 160.58 118.345 163.229 118.677 163.562 C 119.756 164.641 134.742 164.183 137.094 162.999 Z M 85.664 91.646 C 78.053 90.719 64.222 86.316 58.293 82.933 C 47.131 76.564 35.13 65.237 30.567 56.764 C 28.988 53.833 28.997 53.771 31.557 49.886 C 36.276 42.721 41.463 37.211 48.346 32.05 C 55.618 26.597 61.555 23.111 62.302 23.857 C 62.553 24.109 61.739 26.839 60.492 29.925 C 54.493 44.779 58.008 60.721 69.726 71.803 C 88.704 89.753 118.636 83.572 130.118 59.332 C 132.758 53.758 133.015 52.441 132.988 44.606 C 132.963 37.371 132.571 35.071 130.529 30.158 C 129.192 26.944 128.305 24.109 128.557 23.857 C 129.264 23.15 136.529 27.365 143.164 32.33 C 148.723 36.49 156.786 45.335 160.804 51.682 L 162.513 54.381 L 156.935 61.783 C 140.507 83.585 113.248 95.006 85.664 91.646 Z M 86.102 71.378 C 77.715 68.386 70.422 60.841 68.104 52.758 C 63.336 36.129 73.194 19.989 90.221 16.547 C 110.084 12.531 128.123 31.44 123.107 51.018 C 119.715 64.261 108.769 72.74 95.193 72.645 C 92.085 72.623 87.994 72.053 86.102 71.378 Z"
            fill="#000000"
            stroke-width="12"/>
    </g>
</svg>
